IMB-X-Files/The-Ambassadors-Assets/6616e2eec6d1254b6becb7d3_gr-logo.svg

<svg fill="none" height="53" viewBox="0 0 243 53" width="243" xmlns="http://www.w3.org/2000/svg"><path d="m81.6866 21.6754h5.3924v-5.289c.0003-1.085-.4276-2.1263-1.1909-2.898-.3779-.3823-.8277-.6862-1.3235-.8942-.4959-.208-1.028-.316-1.5657-.3178h-10.6636c-.5389.004-1.0714.1164-1.5659.3305-.4959.2019-.946.5018-1.3233.8815-.3745.3858-.6737.8379-.8822 1.3333-.2107.4987-.3195 1.0344-.3198 1.5757v10.6883c.0022.5364.107 1.0675.3088 1.5647.2085.498.5118.9509.8932 1.3332.3773.3798.8274.6796 1.3233.8816.496.2068 1.0285.3117 1.5659.3085h5.2601v-5.3993c-.0014-.5363.103-1.0676.3074-1.5635s.5047-.9467.8838-1.3264c.379-.3798.8293-.6811 1.325-.8867.4958-.2055 1.0272-.3113 1.564-.3113" fill="#fff"/><path d="m92.3394 21.6763h-5.2601v5.4102c-.0029 1.0814-.4333 2.1179-1.1976 2.8836-.7642.7657-1.8003 1.1986-2.8825 1.2044h-5.4035v5.3442c-.0014.5363.103 1.0676.3074 1.5635s.5047.9467.8838 1.3264c.379.3798.8293.6811 1.325.8866.4958.2056 1.0272.3114 1.564.3114h10.6525c.5362.0011 1.0674-.1034 1.5631-.3076.4958-.2042.9464-.5041 1.3261-.8824.3814-.3824.6848-.8352.8932-1.3333.2018-.4971.3066-1.0282.3088-1.5646v-10.6883c-.0022-.5365-.107-1.0676-.3088-1.5647-.2084-.4981-.5118-.9509-.8932-1.3333-.3797-.3783-.8303-.6781-1.3261-.8823-.4957-.2042-1.0269-.3088-1.5631-.3077" fill="#fff"/><path d="m87.0761 27.0865v-5.4102h-5.3924c-.5368 0-1.0682.1058-1.564.3114-.4957.2055-.946.5068-1.325.8866-.379.3797-.6794.8305-.8838 1.3264s-.3088 1.0272-.3074 1.5636v5.4102h5.3925c1.0822-.0058 2.1183-.4387 2.8825-1.2044.7643-.7657 1.1947-1.8022 1.1976-2.8836z" fill="#0e031e"/><g fill="#fff"><path d="m96.4294 15.3518c.0029.6119-.1776 1.2106-.5183 1.719-.3394.4962-.8194.8799-1.3784 1.1019-.556.2282-1.1674.2861-1.7564.1664s-1.1292-.4116-1.5519-.8386c-.4181-.4282-.7031-.9683-.8205-1.5549-.1174-.5867-.0622-1.1948.1589-1.7507.1928-.4665.4979-.8781.8882-1.1984.3903-.3202.8538-.5391 1.3492-.6372.4954-.0982 1.0074-.0725 1.4905.0747.4831.1473.9223.4115 1.2786.7692.2898.2887.5191.6324.6744 1.0108.1552.3784.2334.784.2298 1.1929"/><path d="m123.59 25.6875v9.5423h-2.944v-3.9007c-1.103 3.515-4.102 4.1541-6.23 4.1541-1.198.0016-2.383-.2405-3.484-.7115s-2.095-1.161-2.92-2.028-1.465-1.8929-1.881-3.0151-.599-2.3172-.537-3.5122c0-5.5095 4.014-9.2008 9.549-9.2008 4.014 0 7.367 2.2038 8.238 5.9502l-3.088 1.3663c-.761-2.964-2.293-4.2422-5.337-4.2422-3.805 0-5.911 1.7299-5.911 6.1375 0 4.4075 1.687 6.3468 6.076 6.3468 2.79 0 4.886-1.3883 5.216-4.0329h-5.127v-2.8538z"/><path d="m134.408 22.6342v3.0743c-.546-.1858-1.124-.257-1.698-.2094-2.04 0-3.474 1.3884-3.474 4.5618v5.2119h-3.308v-12.6165h3.297v3.5591c.331-1.8953 1.257-3.7685 3.65-3.7685.518-.0281 1.037.0353 1.533.1873z"/><path d="m145.271 28.971c0-2.5123-1.048-3.6252-3.474-3.6252s-3.407 1.1019-3.407 3.6252 1.102 3.5591 3.407 3.5591 3.474-1.1019 3.474-3.5591zm3.143-6.3138v12.5725h-3.243v-2.7437c-.306.9123-.904 1.6991-1.7 2.2403-.797.5412-1.749.807-2.711.7568-3.572 0-5.69-2.6114-5.69-6.5121s2.04-6.6113 5.514-6.6113c1.003-.0488 1.994.2317 2.823.7988.828.5671 1.448 1.3894 1.764 2.3416v-2.8429z"/><path d="m155.934 25.5005v6.8206h3.308v2.8759h-2.669c-.518.0292-1.037-.052-1.522-.2382-.486-.1861-.926-.473-1.291-.8417-.366-.3687-.65-.8108-.832-1.297-.182-.4863-.259-1.0056-.225-1.5237v-5.7959h-2.404v-2.8429h2.404v-3.7684h3.242v3.7464h3.628v2.8649z"/><path d="m123.644 25.6875v9.5423h-2.944v-3.9007c-1.103 3.515-4.124 4.1541-6.241 4.1541-1.198.0016-2.383-.2405-3.484-.7115s-2.095-1.161-2.92-2.028-1.465-1.8929-1.881-3.0151-.599-2.3172-.537-3.5122c0-5.5095 4.025-9.2008 9.56-9.2008 4.014 0 7.356 2.2038 8.227 5.9502l-3.088 1.3663c-.772-2.964-2.305-4.2422-5.348-4.2422-3.805 0-5.889 1.7299-5.889 6.1375 0 4.4075 1.687 6.3468 6.087 6.3468 2.79 0 4.886-1.3883 5.205-4.0329h-5.127v-2.8538z"/><path d="m134.409 22.6348v3.0743c-.532-.1798-1.095-.251-1.654-.2094-2.041 0-3.474 1.3884-3.474 4.5618v5.212h-3.308v-12.6166h3.308v3.5591c.32-1.8953 1.246-3.7685 3.65-3.7685.5-.0217.999.0417 1.478.1873z"/><path d="m145.313 28.9699c0-2.5123-1.103-3.6252-3.473-3.6252-2.371 0-3.397 1.1019-3.397 3.6252s1.103 3.5591 3.397 3.5591c2.293 0 3.473-1.1019 3.473-3.5591zm3.143-6.3138v12.5725h-3.253v-2.7437c-.303.8992-.889 1.6765-1.67 2.2165-.78.5399-1.715.8137-2.664.7806-3.584 0-5.701-2.6114-5.701-6.5121s2.04-6.6113 5.514-6.6113c.993-.0396 1.971.2457 2.787.8124.816.5668 1.425 1.3842 1.734 2.328v-2.8429z"/><path d="m155.989 25.4995v6.8207h3.308v2.8759h-2.679c-.52.029-1.039-.0523-1.525-.2383-.485-.1861-.926-.4728-1.293-.8413-.366-.3685-.651-.8104-.834-1.2966-.184-.4863-.262-1.0058-.23-1.5245v-5.7959h-2.404v-2.8429h2.404v-3.7684h3.253v3.7464h3.617v2.8649z"/><path d="m170.966 28.9717c0-2.5123-1.103-3.6252-3.474-3.6252s-3.397 1.1018-3.397 3.6252c0 2.5233 1.103 3.559 3.397 3.559s3.474-1.1018 3.474-3.559zm3.142-6.3138v12.5725h-3.242v-2.7437c-.303.901-.891 1.6796-1.674 2.2198-.783.5401-1.72.8128-2.67.7773-3.584 0-5.702-2.6115-5.702-6.5121 0-3.9007 2.04-6.6113 5.514-6.6113.994-.0384 1.974.2471 2.791.8136.818.5664 1.429 1.383 1.741 2.3267v-2.8428z"/></g></svg>

<svg width="243" height="53" viewBox="0 0 243 53" fill="none" xmlns="http://www.w3.org/2000/svg">
<path d="M81.6866 21.6754H87.079V16.3864C87.0793 15.3014 86.6514 14.2601 85.8881 13.4884C85.5102 13.1061 85.0604 12.8022 84.5646 12.5942C84.0687 12.3862 83.5366 12.2782 82.9989 12.2764H72.3353C71.7964 12.2804 71.2639 12.3928 70.7694 12.6069C70.2735 12.8088 69.8234 13.1087 69.4461 13.4884C69.0716 13.8742 68.7724 14.3263 68.5639 14.8217C68.3532 15.3204 68.2444 15.8561 68.2441 16.3974V27.0857C68.2463 27.6221 68.3511 28.1532 68.5529 28.6504C68.7614 29.1484 69.0647 29.6013 69.4461 29.9836C69.8234 30.3634 70.2735 30.6632 70.7694 30.8652C71.2654 31.072 71.7979 31.1769 72.3353 31.1737H77.5954V25.7744C77.594 25.2381 77.6984 24.7068 77.9028 24.2109C78.1072 23.715 78.4075 23.2642 78.7866 22.8845C79.1656 22.5047 79.6159 22.2034 80.1116 21.9978C80.6074 21.7923 81.1388 21.6865 81.6756 21.6865" fill="white"/>
<path d="M92.3394 21.6763H87.0793V27.0865C87.0764 28.1679 86.646 29.2044 85.8817 29.9701C85.1175 30.7358 84.0814 31.1687 82.9992 31.1745H77.5957V36.5187C77.5943 37.055 77.6987 37.5863 77.9031 38.0822C78.1075 38.5781 78.4078 39.0289 78.7869 39.4086C79.1659 39.7884 79.6162 40.0897 80.1119 40.2952C80.6077 40.5008 81.1391 40.6066 81.6759 40.6066H92.3284C92.8646 40.6077 93.3958 40.5032 93.8915 40.299C94.3873 40.0948 94.8379 39.7949 95.2176 39.4166C95.599 39.0342 95.9024 38.5814 96.1108 38.0833C96.3126 37.5862 96.4174 37.0551 96.4196 36.5187V25.8304C96.4174 25.2939 96.3126 24.7628 96.1108 24.2657C95.9024 23.7676 95.599 23.3148 95.2176 22.9324C94.8379 22.5541 94.3873 22.2543 93.8915 22.0501C93.3958 21.8459 92.8646 21.7413 92.3284 21.7424" fill="white"/>
<path d="M87.0761 27.0865V21.6763H81.6837C81.1469 21.6763 80.6155 21.7821 80.1197 21.9877C79.624 22.1932 79.1737 22.4945 78.7947 22.8743C78.4157 23.254 78.1153 23.7048 77.9109 24.2007C77.7065 24.6966 77.6021 25.2279 77.6035 25.7643V31.1745H82.996C84.0782 31.1687 85.1143 30.7358 85.8785 29.9701C86.6428 29.2044 87.0732 28.1679 87.0761 27.0865Z" fill="#0E031E"/>
<path d="M96.4294 15.3518C96.4323 15.9637 96.2518 16.5624 95.9111 17.0708C95.5717 17.567 95.0917 17.9507 94.5327 18.1727C93.9767 18.4009 93.3653 18.4588 92.7763 18.3391C92.1873 18.2194 91.6471 17.9275 91.2244 17.5005C90.8063 17.0723 90.5213 16.5322 90.4039 15.9456C90.2865 15.3589 90.3417 14.7508 90.5628 14.1949C90.7556 13.7284 91.0607 13.3168 91.451 12.9965C91.8413 12.6763 92.3048 12.4574 92.8002 12.3593C93.2956 12.2611 93.8076 12.2868 94.2907 12.434C94.7738 12.5813 95.213 12.8455 95.5693 13.2032C95.8591 13.4919 96.0884 13.8356 96.2437 14.214C96.3989 14.5924 96.4771 14.998 96.4735 15.4069" fill="white"/>
<path d="M123.59 25.6875V35.2298H120.646V31.3291C119.543 34.8441 116.544 35.4832 114.416 35.4832C113.218 35.4848 112.033 35.2427 110.932 34.7717C109.831 34.3007 108.837 33.6107 108.012 32.7437C107.187 31.8767 106.547 30.8508 106.131 29.7286C105.715 28.6064 105.532 27.4114 105.594 26.2164C105.594 20.7069 109.608 17.0156 115.143 17.0156C119.157 17.0156 122.51 19.2194 123.381 22.9658L120.293 24.3321C119.532 21.3681 118 20.0899 114.956 20.0899C111.151 20.0899 109.045 21.8198 109.045 26.2274C109.045 30.6349 110.732 32.5742 115.121 32.5742C117.911 32.5742 120.007 31.1859 120.337 28.5413H115.21V25.6875H123.59Z" fill="white"/>
<path d="M134.408 22.6342V25.7085C133.862 25.5227 133.284 25.4515 132.71 25.4991C130.67 25.4991 129.236 26.8875 129.236 30.0609V35.2728H125.928V22.6563H129.225V26.2154C129.556 24.3201 130.482 22.4469 132.875 22.4469C133.393 22.4188 133.912 22.4822 134.408 22.6342Z" fill="white"/>
<path d="M145.271 28.971C145.271 26.4587 144.223 25.3458 141.797 25.3458C139.371 25.3458 138.39 26.4477 138.39 28.971C138.39 31.4943 139.492 32.5301 141.797 32.5301C144.102 32.5301 145.271 31.4282 145.271 28.971ZM148.414 22.6572V35.2297H145.171V32.486C144.865 33.3983 144.267 34.1851 143.471 34.7263C142.674 35.2675 141.722 35.5333 140.76 35.4831C137.188 35.4831 135.07 32.8717 135.07 28.971C135.07 25.0703 137.11 22.3597 140.584 22.3597C141.587 22.3109 142.578 22.5914 143.407 23.1585C144.235 23.7256 144.855 24.5479 145.171 25.5001V22.6572H148.414Z" fill="white"/>
<path d="M155.934 25.5005V32.3211H159.242V35.197H156.573C156.055 35.2262 155.536 35.145 155.051 34.9588C154.565 34.7727 154.125 34.4858 153.76 34.1171C153.394 33.7484 153.11 33.3063 152.928 32.8201C152.746 32.3338 152.669 31.8145 152.703 31.2964V25.5005H150.299V22.6576H152.703V18.8892H155.945V22.6356H159.573V25.5005H155.934Z" fill="white"/>
<path d="M123.644 25.6875V35.2298H120.7V31.3291C119.597 34.8441 116.576 35.4832 114.459 35.4832C113.261 35.4848 112.076 35.2427 110.975 34.7717C109.874 34.3007 108.88 33.6107 108.055 32.7437C107.23 31.8767 106.59 30.8508 106.174 29.7286C105.758 28.6064 105.575 27.4114 105.637 26.2164C105.637 20.7069 109.662 17.0156 115.197 17.0156C119.211 17.0156 122.553 19.2194 123.424 22.9658L120.336 24.3321C119.564 21.3681 118.031 20.0899 114.988 20.0899C111.183 20.0899 109.099 21.8198 109.099 26.2274C109.099 30.6349 110.786 32.5742 115.186 32.5742C117.976 32.5742 120.072 31.1859 120.391 28.5413H115.264V25.6875H123.644Z" fill="white"/>
<path d="M134.409 22.6348V25.7091C133.877 25.5293 133.314 25.4581 132.755 25.4997C130.714 25.4997 129.281 26.8881 129.281 30.0615V35.2735H125.973V22.6569H129.281V26.216C129.601 24.3207 130.527 22.4475 132.931 22.4475C133.431 22.4258 133.93 22.4892 134.409 22.6348Z" fill="white"/>
<path d="M145.313 28.9699C145.313 26.4576 144.21 25.3447 141.84 25.3447C139.469 25.3447 138.443 26.4466 138.443 28.9699C138.443 31.4932 139.546 32.529 141.84 32.529C144.133 32.529 145.313 31.4271 145.313 28.9699ZM148.456 22.6561V35.2286H145.203V32.4849C144.9 33.3841 144.314 34.1614 143.533 34.7014C142.753 35.2413 141.818 35.5151 140.869 35.482C137.285 35.482 135.168 32.8706 135.168 28.9699C135.168 25.0692 137.208 22.3586 140.682 22.3586C141.675 22.319 142.653 22.6043 143.469 23.171C144.285 23.7378 144.894 24.5552 145.203 25.499V22.6561H148.456Z" fill="white"/>
<path d="M155.989 25.4995V32.3202H159.297V35.1961H156.618C156.098 35.2251 155.579 35.1438 155.093 34.9578C154.608 34.7717 154.167 34.485 153.8 34.1165C153.434 33.748 153.149 33.3061 152.966 32.8199C152.782 32.3336 152.704 31.8141 152.736 31.2954V25.4995H150.332V22.6566H152.736V18.8882H155.989V22.6346H159.606V25.4995H155.989Z" fill="white"/>
<path d="M170.966 28.9717C170.966 26.4594 169.863 25.3465 167.492 25.3465C165.121 25.3465 164.095 26.4483 164.095 28.9717C164.095 31.495 165.198 32.5307 167.492 32.5307C169.786 32.5307 170.966 31.4289 170.966 28.9717ZM174.108 22.6579V35.2304H170.866V32.4867C170.563 33.3877 169.975 34.1663 169.192 34.7065C168.409 35.2466 167.472 35.5193 166.522 35.4838C162.938 35.4838 160.82 32.8723 160.82 28.9717C160.82 25.071 162.86 22.3604 166.334 22.3604C167.328 22.322 168.308 22.6075 169.125 23.174C169.943 23.7404 170.554 24.557 170.866 25.5007V22.6579H174.108Z" fill="white"/>
</svg>
